X:1
T:Caprice 24, Variation 3
C:N.Paganini
M:4/4
K:C
L:1/16
[C6c6][A,2A2] [^G,2^G2][B,2B2][E4e4] | \
[C6c6][A,2A2] [B,2B2][_E2_e2][F2f2][E2e2] |
[C6c6][A,2A2] [^G,2^G2][B,2B2][E4e4] | \
[C6c6][A,2A2] [B,2B2][_E2_e2][F2f2][E2e2] |
[A6a6][^C2^c2] [D2d2][E2e2][F2f2][^F2^f2] | \
[G6g6][B,2B2] [C2c2][D2d2][_E2_e2][E2e2] |
[F6f6][B,2B2] [E6e6][A,2A2] | \
[B,2B2][F2f2] [E2e2][^G,2^G2][B,4B4][A,4A4]|
